symbolic/32x32/apps/com.neatdecisions.Detwinner.svg

<svg xmlns="http://www.w3.org/2000/svg" width="32" height="32" version="1.1">
 <path style="opacity:0.1" d="m 10.500161,2.9997704 a 2.5,2.5 0 0 0 -2.4999995,2.5 2.5,2.5 0 0 0 2.4999995,2.5 2.5,2.5 0 0 0 2.5,-2.5 2.5,2.5 0 0 0 -2.5,-2.5 z m 0,5 H 6.0997705 c -0.607475,6.1e-5 -1.099548,0.5147607 -1.099609,1.1210937 v 5.7792969 c -0.02104,1.484728 2.021038,1.484728 2,0 V 9.9997701 h 1 v 5.4433589 8.44336 c -0.02099,1.484681 2.0209885,1.484681 1.9999995,0 V 15.99977 h 1 v 7.835938 c -0.02104,1.484728 2.021038,1.484728 2,0 V 15.077895 9.9997701 h 1 v 4.9003909 c -0.02104,1.484728 2.021038,1.484728 2,0 V 9.1208641 C 16.0001,8.5145311 15.508028,7.9998304 14.900552,7.9997704 Z"/>
 <path style="fill:#9ccc65" d="m 10.500161,1.9998851 a 2.5,2.5 0 0 0 -2.4999995,2.5 2.5,2.5 0 0 0 2.4999995,2.5 2.5,2.5 0 0 0 2.5,-2.5 2.5,2.5 0 0 0 -2.5,-2.5 z m 0,5 H 6.0997705 c -0.607475,6.1e-5 -1.099548,0.5147607 -1.099609,1.1210937 v 5.7792972 c -0.02104,1.484728 2.021038,1.484728 2,0 V 8.9998848 h 1 v 5.4433592 8.44336 c -0.02099,1.484681 2.0209885,1.484681 1.9999995,0 v -7.886719 h 1 v 7.835938 c -0.02104,1.484728 2.021038,1.484728 2,0 V 14.07801 8.9998848 h 1 v 4.9003912 c -0.02104,1.484728 2.021038,1.484728 2,0 V 8.1209788 C 16.0001,7.5146458 15.508028,6.9999451 14.900552,6.9998851 Z"/>
 <path style="opacity:0.1;fill:#ffffff" d="M 10.5 2 A 2.5 2.5 0 0 0 8 4.5 A 2.5 2.5 0 0 0 8.0527344 5.0039062 A 2.5 2.5 0 0 1 10.5 3 A 2.5 2.5 0 0 1 12.947266 4.9902344 A 2.5 2.5 0 0 0 13 4.5 A 2.5 2.5 0 0 0 10.5 2 z M 6.0996094 7 C 5.4921344 7.000061 5.000061 7.5147607 5 8.1210938 L 5 9.1210938 C 5.000061 8.5147608 5.4921344 8.000061 6.0996094 8 L 10.5 8 A 2.5 2.5 0 0 1 8.5039062 7 L 6.0996094 7 z M 10.5 8 L 14.900391 8 C 15.507867 8.00006 15.999939 8.5147607 16 9.1210938 L 16 8.1210938 C 15.999939 7.5147608 15.507867 7.00006 14.900391 7 L 12.498047 7 A 2.5 2.5 0 0 1 10.5 8 z"/>
 <path style="opacity:0.1" d="m 16.5,5.9995407 a 2.5,2.5 0 0 0 -2.5,2.5 2.5,2.5 0 0 0 2.5,2.5000003 2.5,2.5 0 0 0 2.5,-2.5000003 2.5,2.5 0 0 0 -2.5,-2.5 z m 0,5.0000003 H 12.099609 C 11.492134,10.999602 11.000061,11.514301 11,12.120634 v 5.779297 c -0.02104,1.484728 2.021038,1.484728 2,0 V 12.99954 h 1 v 5.443359 8.44336 c -0.02099,1.484681 2.020989,1.484681 2,0 V 18.99954 h 1 v 7.835938 c -0.02104,1.484728 2.021038,1.484728 2,0 V 18.077665 12.99954 h 1 v 4.900391 c -0.02104,1.484728 2.021038,1.484728 2,0 v -5.779297 c -6.1e-5,-0.606333 -0.492133,-1.121033 -1.099609,-1.121093 z"/>
 <path style="fill:#43a047" d="m 16.5,4.9996554 a 2.5,2.5 0 0 0 -2.5,2.5 2.5,2.5 0 0 0 2.5,2.5 2.5,2.5 0 0 0 2.5,-2.5 2.5,2.5 0 0 0 -2.5,-2.5 z m 0,5 H 12.099609 C 11.492134,9.9997164 11.000061,10.514416 11,11.120749 v 5.779297 c -0.02104,1.484728 2.021038,1.484728 2,0 v -4.900391 h 1 v 5.443359 8.44336 c -0.02099,1.484681 2.020989,1.484681 2,0 v -7.886719 h 1 v 7.835938 c -0.02104,1.484728 2.021038,1.484728 2,0 V 17.07778 11.999655 h 1 v 4.900391 c -0.02104,1.484728 2.021038,1.484728 2,0 v -5.779297 c -6.1e-5,-0.606333 -0.492133,-1.1210336 -1.099609,-1.1210936 z"/>
 <path style="opacity:0.1" d="M 22.5,8.9997704 A 2.5,2.5 0 0 0 20,11.49977 a 2.5,2.5 0 0 0 2.5,2.5 2.5,2.5 0 0 0 2.5,-2.5 2.5,2.5 0 0 0 -2.5,-2.4999996 z m 0,4.9999996 H 18.099609 C 17.492134,13.999831 17.000061,14.514531 17,15.120864 v 5.779297 c -0.02104,1.484728 2.021038,1.484728 2,0 V 15.99977 h 1 v 5.443359 8.44336 c -0.02099,1.484681 2.020989,1.484681 2,0 V 21.99977 h 1 v 7.835938 c -0.02104,1.484728 2.021038,1.484728 2,0 V 21.077895 15.99977 h 1 v 4.900391 c -0.02104,1.484728 2.021038,1.484728 2,0 v -5.779297 c -6.1e-5,-0.606333 -0.492133,-1.121034 -1.099609,-1.121094 z"/>
 <path style="opacity:0.1;fill:#ffffff" d="M 16.5 5 A 2.5 2.5 0 0 0 14 7.5 A 2.5 2.5 0 0 0 14.052734 8.0039062 A 2.5 2.5 0 0 1 16.5 6 A 2.5 2.5 0 0 1 18.947266 7.9941406 A 2.5 2.5 0 0 0 19 7.5 A 2.5 2.5 0 0 0 16.5 5 z M 12.099609 10 C 11.492134 10.000061 11.000061 10.514761 11 11.121094 L 11 12.121094 C 11.000061 11.514761 11.492134 11.000061 12.099609 11 L 16.5 11 A 2.5 2.5 0 0 1 14.503906 10 L 12.099609 10 z M 16.5 11 L 20.900391 11 C 21.507867 11.00006 21.999939 11.514761 22 12.121094 L 22 11.121094 C 21.999939 10.514761 21.507867 10.00006 20.900391 10 L 18.496094 10 A 2.5 2.5 0 0 1 16.5 11 z"/>
 <path style="fill:#00695c" d="m 22.5,7.9998851 a 2.5,2.5 0 0 0 -2.5,2.4999999 2.5,2.5 0 0 0 2.5,2.5 2.5,2.5 0 0 0 2.5,-2.5 2.5,2.5 0 0 0 -2.5,-2.4999999 z m 0,4.9999999 H 18.099609 C 17.492134,12.999946 17.000061,13.514646 17,14.120979 v 5.779297 c -0.02104,1.484728 2.021038,1.484728 2,0 v -4.900391 h 1 v 5.443359 8.44336 c -0.02099,1.484681 2.020989,1.484681 2,0 v -7.886719 h 1 v 7.835938 c -0.02104,1.484728 2.021038,1.484728 2,0 V 20.07801 14.999885 h 1 v 4.900391 c -0.02104,1.484728 2.021038,1.484728 2,0 v -5.779297 c -6.1e-5,-0.606333 -0.492133,-1.121034 -1.099609,-1.121094 z"/>
 <path style="fill:#ffffff;opacity:0.1" d="M 22.5 8 A 2.5 2.5 0 0 0 20 10.5 A 2.5 2.5 0 0 0 20.052734 11.003906 A 2.5 2.5 0 0 1 22.5 9 A 2.5 2.5 0 0 1 24.947266 10.994141 A 2.5 2.5 0 0 0 25 10.5 A 2.5 2.5 0 0 0 22.5 8 z M 18.099609 13 C 17.492134 13.000061 17.000061 13.514761 17 14.121094 L 17 15.121094 C 17.000061 14.514761 17.492134 14.000061 18.099609 14 L 22.5 14 A 2.5 2.5 0 0 1 20.503906 13 L 18.099609 13 z M 22.5 14 L 26.900391 14 C 27.507867 14.00006 27.999939 14.514761 28 15.121094 L 28 14.121094 C 27.999939 13.514761 27.507867 13.00006 26.900391 13 L 24.498047 13 A 2.5 2.5 0 0 1 22.5 14 z"/>
</svg>

<svg xmlns="http://www.w3.org/2000/svg" width="32" height="32"><path style="opacity:.1" d="M10.5 3A2.5 2.5 0 0 0 8 5.5 2.5 2.5 0 0 0 10.5 8 2.5 2.5 0 0 0 13 5.5 2.5 2.5 0 0 0 10.5 3zm0 5H6.1C5.492 8 5 8.515 5 9.12v5.78a1.006 1.006 0 0 0 2 0V10h1v13.886a1.006 1.006 0 0 0 2 0V16h1v7.836a1.006 1.006 0 0 0 2 0V10h1v4.9a1.006 1.006 0 0 0 2 0V9.12C16 8.516 15.508 8 14.9 8z"/><path style="fill:#9ccc65" d="M10.5 2A2.5 2.5 0 0 0 8 4.5 2.5 2.5 0 0 0 10.5 7 2.5 2.5 0 0 0 13 4.5 2.5 2.5 0 0 0 10.5 2zm0 5H6.1C5.492 7 5 7.515 5 8.12v5.78a1.006 1.006 0 0 0 2 0V9h1v13.887a1.006 1.006 0 0 0 2 0V15h1v7.836a1.006 1.006 0 0 0 2 0V9h1v4.9a1.006 1.006 0 0 0 2 0V8.121C16 7.515 15.508 7 14.9 7z"/><path style="opacity:.1;fill:#fff" d="M10.5 2A2.5 2.5 0 0 0 8 4.5a2.5 2.5 0 0 0 .053.504A2.5 2.5 0 0 1 10.5 3a2.5 2.5 0 0 1 2.447 1.99A2.5 2.5 0 0 0 13 4.5 2.5 2.5 0 0 0 10.5 2zM6.1 7C5.492 7 5 7.515 5 8.121v1c0-.606.492-1.12 1.1-1.121h4.4a2.5 2.5 0 0 1-1.996-1H6.1zm4.4 1h4.4c.608 0 1.1.515 1.1 1.121v-1c0-.606-.492-1.12-1.1-1.121h-2.402A2.5 2.5 0 0 1 10.5 8z"/><path style="opacity:.1" d="M16.5 6A2.5 2.5 0 0 0 14 8.5a2.5 2.5 0 0 0 2.5 2.5A2.5 2.5 0 0 0 19 8.5 2.5 2.5 0 0 0 16.5 6zm0 5h-4.4c-.608 0-1.1.514-1.1 1.12v5.78a1.006 1.006 0 0 0 2 0V13h1v13.886a1.006 1.006 0 0 0 2 0V19h1v7.835a1.006 1.006 0 0 0 2 0V13h1v4.9a1.006 1.006 0 0 0 2 0v-5.78c0-.606-.492-1.12-1.1-1.12z"/><path style="fill:#43a047" d="M16.5 5A2.5 2.5 0 0 0 14 7.5a2.5 2.5 0 0 0 2.5 2.5A2.5 2.5 0 0 0 19 7.5 2.5 2.5 0 0 0 16.5 5zm0 5h-4.4c-.608 0-1.1.514-1.1 1.12v5.78a1.006 1.006 0 0 0 2 0V12h1v13.886a1.006 1.006 0 0 0 2 0V18h1v7.836a1.006 1.006 0 0 0 2 0V12h1v4.9a1.006 1.006 0 0 0 2 0v-5.78c0-.606-.492-1.12-1.1-1.12z"/><path style="opacity:.1" d="M22.5 9a2.5 2.5 0 0 0-2.5 2.5 2.5 2.5 0 0 0 2.5 2.5 2.5 2.5 0 0 0 2.5-2.5A2.5 2.5 0 0 0 22.5 9zm0 5h-4.4c-.608 0-1.1.515-1.1 1.12v5.78a1.006 1.006 0 0 0 2 0V16h1v13.886a1.006 1.006 0 0 0 2 0V22h1v7.836a1.006 1.006 0 0 0 2 0V16h1v4.9a1.006 1.006 0 0 0 2 0v-5.78c0-.605-.492-1.12-1.1-1.12z"/><path style="opacity:.1;fill:#fff" d="M16.5 5A2.5 2.5 0 0 0 14 7.5a2.5 2.5 0 0 0 .053.504A2.5 2.5 0 0 1 16.5 6a2.5 2.5 0 0 1 2.447 1.994A2.5 2.5 0 0 0 19 7.5 2.5 2.5 0 0 0 16.5 5zm-4.4 5c-.608 0-1.1.515-1.1 1.121v1c0-.606.492-1.12 1.1-1.121h4.4a2.5 2.5 0 0 1-1.996-1H12.1zm4.4 1h4.4c.608 0 1.1.515 1.1 1.121v-1c0-.606-.492-1.12-1.1-1.121h-2.404a2.5 2.5 0 0 1-1.996 1z"/><path style="fill:#00695c" d="M22.5 8a2.5 2.5 0 0 0-2.5 2.5 2.5 2.5 0 0 0 2.5 2.5 2.5 2.5 0 0 0 2.5-2.5A2.5 2.5 0 0 0 22.5 8zm0 5h-4.4c-.608 0-1.1.515-1.1 1.121v5.78a1.006 1.006 0 0 0 2 0V15h1v13.887a1.006 1.006 0 0 0 2 0V21h1v7.836a1.006 1.006 0 0 0 2 0V15h1v4.9a1.006 1.006 0 0 0 2 0v-5.779c0-.606-.492-1.121-1.1-1.121z"/><path style="fill:#fff;opacity:.1" d="M22.5 8a2.5 2.5 0 0 0-2.5 2.5 2.5 2.5 0 0 0 .053.504A2.5 2.5 0 0 1 22.5 9a2.5 2.5 0 0 1 2.447 1.994A2.5 2.5 0 0 0 25 10.5 2.5 2.5 0 0 0 22.5 8zm-4.4 5c-.608 0-1.1.515-1.1 1.121v1c0-.606.492-1.12 1.1-1.121h4.4a2.5 2.5 0 0 1-1.996-1H18.1zm4.4 1h4.4c.608 0 1.1.515 1.1 1.121v-1c0-.606-.492-1.12-1.1-1.121h-2.402a2.5 2.5 0 0 1-1.998 1z"/></svg>
